icons/duplicate-24-24.svg

<svg width="24" height="24" viewBox="0 0 24 24" fill="none" xmlns="http://www.w3.org/2000/svg">
<path d="M14.5128 6C14.9271 6 15.2628 6.33579 15.2628 6.75L15.2628 8.75002L17.25 8.74999C17.6642 8.74999 18 9.08578 18 9.49999C18 9.91421 17.6642 10.25 17.25 10.25L15.2628 10.25V12.25C15.2628 12.6642 14.9271 13 14.5128 13C14.0986 13 13.7628 12.6642 13.7628 12.25V10.25L11.75 10.25C11.3358 10.25 11 9.91421 11 9.49999C11 9.08578 11.3358 8.74999 11.75 8.74999L13.7628 8.75002V6.75C13.7628 6.33579 14.0986 6 14.5128 6Z" fill="#24292E"/>
<path fill-rule="evenodd" clip-rule="evenodd" d="M7.02426 3.75C7.02426 2.7835 7.80776 2 8.77426 2L20.25 2.00001C21.2165 2.00001 22 2.78351 22 3.75001L22 15.2484C22 16.2149 21.2165 16.9984 20.25 16.9984L8.77427 16.9984C7.80777 16.9984 7.02427 16.2149 7.02427 15.2484L7.02426 3.75ZM8.77426 3.5C8.63619 3.5 8.52426 3.61193 8.52426 3.75L8.52427 15.2484C8.52427 15.3865 8.6362 15.4984 8.77427 15.4984L20.25 15.4984C20.3881 15.4984 20.5 15.3865 20.5 15.2484L20.5 3.75001C20.5 3.61194 20.3881 3.50001 20.25 3.50001L8.77426 3.5Z" fill="#24292E"/>
<path d="M1.995 10.7488C1.99454 9.78193 2.77817 8.99792 3.745 8.99792H5.24998C5.6642 8.99792 5.99998 9.33371 5.99998 9.74792C5.99998 10.1621 5.6642 10.4979 5.24998 10.4979H3.745C3.60688 10.4979 3.49493 10.6099 3.495 10.748L3.49952 20.2501C3.49958 20.3881 3.61149 20.5 3.74952 20.5L13.25 20.5C13.3881 20.5 13.5 20.388 13.5 20.25V18.7404C13.5 18.3261 13.8358 17.9904 14.25 17.9904C14.6642 17.9904 15 18.3261 15 18.7404V20.25C15 21.2165 14.2165 22 13.25 22L3.74952 22C2.78334 22 1.99997 21.217 1.99952 20.2508L1.995 10.7488Z" fill="#24292E"/>
</svg>

<svg xmlns="http://www.w3.org/2000/svg" width="24" height="24" viewBox="0 0 24 24"><path d="M14.513 6a.75.75 0 01.75.75v2h1.987a.75.75 0 010 1.5h-1.987v2a.75.75 0 11-1.5 0v-2H11.75a.75.75 0 010-1.5h2.013v-2a.75.75 0 01.75-.75z"/><path fill-rule="evenodd" d="M7.024 3.75c0-.966.784-1.75 1.75-1.75H20.25c.966 0 1.75.784 1.75 1.75v11.498a1.75 1.75 0 01-1.75 1.75H8.774a1.75 1.75 0 01-1.75-1.75V3.75zm1.75-.25a.25.25 0 00-.25.25v11.498c0 .139.112.25.25.25H20.25a.25.25 0 00.25-.25V3.75a.25.25 0 00-.25-.25H8.774z"/><path d="M1.995 10.749a1.75 1.75 0 011.75-1.751H5.25a.75.75 0 110 1.5H3.745a.25.25 0 00-.25.25L3.5 20.25c0 .138.111.25.25.25h9.5a.25.25 0 00.25-.25v-1.51a.75.75 0 111.5 0v1.51A1.75 1.75 0 0113.25 22h-9.5A1.75 1.75 0 012 20.25l-.005-9.501z"/></svg>
